.local/share/icons/Gruvbox-Plus-Dark/mimetypes/scalable/wps-office-wpt.svg

<svg width="256" height="256" viewBox="0 0 256 256" fill="none" xmlns="http://www.w3.org/2000/svg">
<g opacity="0.4" filter="url(#filter0_f)">
<path d="M55.0839 15.5636H155.608L216.009 75.7129L216.011 224.609C216.011 233.52 208.749 240.737 199.838 240.737H55.0838C46.1734 240.737 39 233.564 39 224.654V31.6474C39 22.737 46.1734 15.5636 55.0838 15.5636H55.0839Z" fill="#282828"/>
</g>
<path d="M55.0839 15H155.608L216.009 75.1493L216.011 224.045C216.011 232.956 208.749 240.174 199.838 240.174H55.0838C46.1734 240.174 39 233 39 224.09V31.0838C39 22.1734 46.1734 15 55.0838 15H55.0839Z" fill="#ebdbb2"/>
<path opacity="0.2" d="M199.838 240.174C208.749 240.174 216.011 232.956 216.011 224.046L216.01 186.5H39V224.09C39 233 46.1734 240.174 55.0838 240.174H199.838Z" fill="url(#paint0_linear)"/>
<path fill-rule="evenodd" clip-rule="evenodd" d="M155.608 20.3191H55.0839C49.1112 20.3191 44.3191 25.1111 44.3191 31.0838V224.09C44.3191 230.063 49.1111 234.855 55.0838 234.855H199.838C205.83 234.855 210.692 229.999 210.692 224.046V75.1493L155.608 20.3191ZM155.608 15H55.0839C46.1735 15 39 22.1734 39 31.0838V224.09C39 233 46.1734 240.174 55.0838 240.174H199.838C208.749 240.174 216.011 232.956 216.011 224.045L216.009 75.1493L155.608 15Z" fill="url(#paint1_linear)"/>
<path d="M93.7523 226H98.1523L102.592 208.64C102.872 207.56 103.032 206.8 103.112 206.08C103.192 206.8 103.352 207.56 103.672 208.68L108.192 226H112.592L118.632 198H113.792L110.472 214.48C110.192 215.72 110.072 216.48 109.992 217.12C109.912 216.48 109.792 215.72 109.432 214.44L105.232 198H101.152L97.0323 214.48C96.7123 215.76 96.5523 216.52 96.4723 217.16C96.3923 216.52 96.2323 215.76 95.9923 214.48L92.6723 198H87.7523L93.7523 226ZM123.107 226H127.907V215.4H134.747C141.467 215.4 144.147 210.68 144.147 206.68C144.147 202.4 141.707 198 134.747 198H123.107V226ZM134.987 210.84H127.907V202.56H134.987C138.267 202.56 139.187 204.92 139.187 206.68C139.187 208.64 138.067 210.84 134.987 210.84ZM159.301 202.6H167.261V198H146.541V202.6H154.501V226H159.301V202.6Z" fill="url(#paint2_linear)"/>
<path d="M132.197 60C114.137 63.1018 96.066 67.2161 78.0053 70.2607C78.0053 96.7536 77.9933 123.258 78.0053 149.762C95.9716 152.796 113.949 156.842 131.88 160H137.259V60H132.197H132.197ZM125.212 92.3911L116.89 126.071L110.06 125.552C108.493 118.031 106.669 110.556 105.267 103.002C103.887 110.341 102.095 117.612 100.517 124.905C98.2548 124.791 95.9827 124.655 93.7086 124.507C91.7531 114.51 89.4551 104.581 87.6292 94.5607C89.6439 94.4705 91.6707 94.3911 93.6846 94.3232C94.8975 101.56 96.2771 108.762 97.3363 116.011C98.9974 108.58 100.696 101.15 102.345 93.7205C104.583 93.5955 106.821 93.5045 109.059 93.3911C110.627 101.06 112.228 108.715 113.924 116.35C115.255 108.466 116.729 100.605 118.154 92.7321C120.511 92.6518 122.866 92.5268 125.211 92.3911H125.212ZM140.964 74.2857H178V145.714H140.964V138.571H170.593V135H140.964V127.857H170.593V124.286H140.964V117.143H170.593V113.571H140.964V106.429H170.593V102.857H140.964V95.7268H170.593V92.1429H140.964V85H170.593V81.4286H140.964V74.2857Z" fill="url(#paint3_linear)"/>
<path opacity="0.25" d="M155.608 17V61.2306C155.608 70.141 162.867 77.1605 171.777 77.1605L216.009 77.1493V75.1493L155.608 17Z" fill="#282828"/>
<path d="M155.608 15V59.2306C155.608 68.141 162.867 75.1605 171.777 75.1605L216.009 75.1493L155.608 15Z" fill="url(#paint4_linear)"/>
<defs>
<filter id="filter0_f" x="23.8778" y="0.441412" width="207.255" height="255.418" filterUnits="userSpaceOnUse" color-interpolation-filters="sRGB">
<feFlood flood-opacity="0" result="BackgroundImageFix"/>
<feBlend mode="normal" in="SourceGraphic" in2="BackgroundImageFix" result="shape"/>
<feGaussianBlur stdDeviation="7.5611" result="effect1_foregroundBlur"/>
</filter>
<linearGradient id="paint0_linear" x1="39" y1="186.5" x2="39" y2="240.174" gradientUnits="userSpaceOnUse">
<stop offset="1e-07" stop-color="#076678"/>
<stop offset="1" stop-color="#458588"/>
</linearGradient>
<linearGradient id="paint1_linear" x1="39" y1="15" x2="39" y2="240.174" gradientUnits="userSpaceOnUse">
<stop offset="1e-07" stop-color="#076678"/>
<stop offset="1" stop-color="#458588"/>
</linearGradient>
<linearGradient id="paint2_linear" x1="39" y1="187" x2="39" y2="240" gradientUnits="userSpaceOnUse">
<stop offset="1e-07" stop-color="#076678"/>
<stop offset="1" stop-color="#458588"/>
</linearGradient>
<linearGradient id="paint3_linear" x1="78" y1="60" x2="78" y2="160" gradientUnits="userSpaceOnUse">
<stop offset="1e-07" stop-color="#076678"/>
<stop offset="1" stop-color="#458588"/>
</linearGradient>
<linearGradient id="paint4_linear" x1="155.608" y1="15" x2="155.608" y2="75.1605" gradientUnits="userSpaceOnUse">
<stop offset="1e-07" stop-color="#076678"/>
<stop offset="1" stop-color="#458588"/>
</linearGradient>
</defs>
</svg>

<svg width="256" height="256" fill="none" version="1.1" viewBox="0 0 256 256" xmlns="http://www.w3.org/2000/svg">
  <path d="m55.08 15h100.5l60.4 60.15 2e-3 148.9c0 8.911-7.262 16.13-16.17 16.13h-144.8c-8.91 0-16.08-7.174-16.08-16.08v-193c0-8.91 7.173-16.08 16.08-16.08h1e-4z" fill="#ebdbb2"/>
  <path d="m199.8 240.2c8.911 0 16.17-7.218 16.17-16.13l-1e-3 -37.55h-177v37.59c0 8.91 7.173 16.08 16.08 16.08h144.8z" fill="url(#paint0_linear)" opacity=".2"/>
  <path d="m155.6 20.32h-100.5c-5.973 0-10.76 4.792-10.76 10.76v193c0 5.973 4.792 10.76 10.76 10.76h144.8c5.992 0 10.85-4.856 10.85-10.81v-148.9l-55.08-54.83zm0-5.319h-100.5c-8.91 0-16.08 7.173-16.08 16.08v193c0 8.91 7.173 16.08 16.08 16.08h144.8c8.911 0 16.17-7.218 16.17-16.13l-2e-3 -148.9-60.4-60.15z" clip-rule="evenodd" fill="url(#paint1_linear)" fill-rule="evenodd"/>
  <path d="m93.75 226h4.4l4.44-17.36c0.28-1.08 0.44-1.84 0.52-2.56 0.08 0.72 0.24 1.48 0.56 2.6l4.52 17.32h4.4l6.04-28h-4.84l-3.32 16.48c-0.28 1.24-0.4 2-0.48 2.64-0.08-0.64-0.2-1.4-0.56-2.68l-4.2-16.44h-4.08l-4.12 16.48c-0.32 1.28-0.48 2.04-0.56 2.68-0.08-0.64-0.24-1.4-0.48-2.68l-3.32-16.48h-4.92l6 28zm29.35 0h4.8v-10.6h6.84c6.72 0 9.4-4.72 9.4-8.72 0-4.28-2.44-8.68-9.4-8.68h-11.64v28zm11.88-15.16h-7.08v-8.28h7.08c3.28 0 4.2 2.36 4.2 4.12 0 1.96-1.12 4.16-4.2 4.16zm24.31-8.24h7.96v-4.6h-20.72v4.6h7.96v23.4h4.8v-23.4z" fill="url(#paint2_linear)"/>
  <path d="m132.2 60c-18.06 3.102-36.13 7.216-54.19 10.26 0 26.49-0.012 53 0 79.5 17.97 3.034 35.94 7.08 53.87 10.24h5.379v-100h-5.062zm-6.985 32.39-8.322 33.68-6.83-0.519c-1.567-7.521-3.391-15-4.793-22.55-1.38 7.339-3.172 14.61-4.75 21.9-2.262-0.114-4.534-0.25-6.808-0.398-1.956-9.997-4.254-19.93-6.079-29.95 2.015-0.0902 4.042-0.1696 6.055-0.2375 1.213 7.237 2.592 14.44 3.652 21.69 1.661-7.431 3.36-14.86 5.009-22.29 2.238-0.125 4.476-0.216 6.714-0.3294 1.568 7.669 3.169 15.32 4.865 22.96 1.331-7.884 2.805-15.74 4.23-23.62 2.357-0.0803 4.712-0.2053 7.057-0.341h1e-3zm15.75-18.11h37.04v71.43h-37.04v-7.143h29.63v-3.571h-29.63v-7.143h29.63v-3.571h-29.63v-7.143h29.63v-3.572h-29.63v-7.142h29.63v-3.572h-29.63v-7.13h29.63v-3.584h-29.63v-7.143h29.63v-3.571h-29.63v-7.143z" fill="url(#paint3_linear)"/>
  <path d="m155.6 17v44.23c0 8.91 7.259 15.93 16.17 15.93l44.23-0.0112v-2l-60.4-58.15z" fill="#282828" opacity=".25"/>
  <path d="m155.6 15v44.23c0 8.91 7.259 15.93 16.17 15.93l44.23-0.0112-60.4-60.15z" fill="url(#paint4_linear)"/>
  <defs>
    <linearGradient id="paint0_linear" x1="39" x2="39" y1="186.5" y2="240.2" gradientUnits="userSpaceOnUse">
      <stop stop-color="#076678" offset="1e-7"/>
      <stop stop-color="#458588" offset="1"/>
    </linearGradient>
    <linearGradient id="paint1_linear" x1="39" x2="39" y1="15" y2="240.2" gradientUnits="userSpaceOnUse">
      <stop stop-color="#076678" offset="1e-7"/>
      <stop stop-color="#458588" offset="1"/>
    </linearGradient>
    <linearGradient id="paint2_linear" x1="39" x2="39" y1="187" y2="240" gradientUnits="userSpaceOnUse">
      <stop stop-color="#076678" offset="1e-7"/>
      <stop stop-color="#458588" offset="1"/>
    </linearGradient>
    <linearGradient id="paint3_linear" x1="78" x2="78" y1="60" y2="160" gradientUnits="userSpaceOnUse">
      <stop stop-color="#076678" offset="1e-7"/>
      <stop stop-color="#458588" offset="1"/>
    </linearGradient>
    <linearGradient id="paint4_linear" x1="155.6" x2="155.6" y1="15" y2="75.16" gradientUnits="userSpaceOnUse">
      <stop stop-color="#076678" offset="1e-7"/>
      <stop stop-color="#458588" offset="1"/>
    </linearGradient>
  </defs>
</svg>
